_includes/icons/ios-note.svg

<svg fill="#666" height="50" viewBox="0 0 50 50" width="50" xmlns="http://www.w3.org/2000/svg"><path d="m4 4v42h31.414062l10.585938-10.585938v-.414062-31zm2 2h38v28h-10v10h-28zm8 9v2h23v-2zm0 6v2h23v-2zm0 6v2h23v-2zm22 9h6.585938l-6.585938 6.585938z"/></svg>

<svg xmlns="http://www.w3.org/2000/svg" viewBox="0 0 50 50" width="50" height="50" fill="#666"><path style="line-height:normal;text-indent:0;text-align:start;text-decoration-line:none;text-decoration-style:solid;text-decoration-color:#000;text-transform:none;block-progression:tb;isolation:auto;mix-blend-mode:normal" d="M 4 4 L 4 46 L 35.414062 46 L 46 35.414062 L 46 35 L 46 4 L 4 4 z M 6 6 L 44 6 L 44 34 L 34 34 L 34 44 L 6 44 L 6 6 z M 14 15 L 14 17 L 37 17 L 37 15 L 14 15 z M 14 21 L 14 23 L 37 23 L 37 21 L 14 21 z M 14 27 L 14 29 L 37 29 L 37 27 L 14 27 z M 36 36 L 42.585938 36 L 36 42.585938 L 36 36 z"/></svg>
